X: 1
T: Haughton House
M: 4/4
L: 1/8
R: reel
K: Gmaj
|:D | GB/G/ DG/D/ B,/C/D/B,/ G,A/B/|c(3B/c/B/ AG E3D|
GB/G/ DG/D/ B,/C/D/B,/ G,A/B/|c/B/c/e/ dF G2 G :|
d|g(3f/e/f/ ed edBG|c(3B/c/B/ AG E3D|
GB/G/ DG/D/ B,/C/D/B,/ G,A/B/|c/B/c/e/ dF G2Gd|
g(3fef ed edBG|c(3B/c/B/ AG E3B/A/|
G/F/G/A/ AB,/C/ D/C/B,/A,/ G,A/B/|c/B/c/e/ dF G2 G|
